X:970
T:Lady Dalrymple (North Berwick's) Strathspey
S:The Mackintosh Collections
Z:Nigel Gatherer
L:1/8
M:4/4
K:Gm
d | B<GG>F D<GG>B | A<Fc<F d<FA>c | B<GG>F D<GG>A | B>AB>c d<gg>a |
b<ga<^f g<d=f<c | e/d/c/B/ fB A<Fc>d |  B<GG>F D<GG>A | B/A/B/c/ d/c/B/A/ BGG ||
B | G<g gf/g/ G<gB<g | F<fd<f c<fA<F | G<g gf/g/ B<gd<g | b<ag>^f g/g/g g>a |
b<ga<d g<ef<B | e<cd<g ^F<dD>c | B<GG>F D<GG>g | f/e/d/c/ d/c/B/A/ BGG ||
<end>
<start>
